assets/icons/book.svg

<svg width="18" height="18" viewBox="0 0 18 18" fill="none" xmlns="http://www.w3.org/2000/svg">
<path d="M7.11 2.60166C5.83981 1.99522 4.06442 1.69815 1.6875 1.6876C1.46333 1.68456 1.24357 1.74992 1.0575 1.87498C0.904779 1.97821 0.779762 2.11739 0.693448 2.28027C0.607134 2.44315 0.562167 2.62475 0.562502 2.80909V12.8673C0.562502 13.5472 1.04625 14.0601 1.6875 14.0601C4.18606 14.0601 6.69235 14.2936 8.19352 15.7125C8.21405 15.732 8.23986 15.745 8.26775 15.75C8.29563 15.7549 8.32435 15.7516 8.35034 15.7403C8.37634 15.7291 8.39846 15.7105 8.41395 15.6868C8.42945 15.6631 8.43764 15.6353 8.4375 15.607V3.75549C8.43756 3.67553 8.42046 3.59649 8.38734 3.52371C8.35423 3.45093 8.30587 3.3861 8.24555 3.33362C7.90169 3.03965 7.51973 2.79345 7.11 2.60166Z" fill="_COLOR_VAR_"/>
<path d="M16.9425 1.87396C16.7563 1.74921 16.5366 1.6842 16.3125 1.68763C13.9356 1.69818 12.1602 1.99384 10.89 2.60169C10.4803 2.79313 10.0982 3.03885 9.7541 3.33224C9.69391 3.38481 9.64567 3.44967 9.61263 3.52243C9.57958 3.5952 9.56249 3.67419 9.5625 3.75411V15.6063C9.56248 15.6336 9.5705 15.6602 9.58555 15.6828C9.6006 15.7055 9.62201 15.7232 9.64709 15.7338C9.67217 15.7443 9.69981 15.7472 9.72654 15.7421C9.75327 15.737 9.7779 15.7242 9.79734 15.7051C10.6998 14.8086 12.2836 14.0591 16.3139 14.0595C16.6123 14.0595 16.8984 13.9409 17.1094 13.73C17.3204 13.519 17.4389 13.2328 17.4389 12.9345V2.80946C17.4393 2.62476 17.3942 2.4428 17.3077 2.27964C17.2211 2.11649 17.0957 1.97716 16.9425 1.87396Z" fill="_COLOR_VAR_"/>
</svg>

<svg xmlns="http://www.w3.org/2000/svg" width="18" height="18"><path d="M7.11 2.602c-1.27-.607-3.046-.904-5.422-.914a1.1 1.1 0 0 0-.995.592 1.1 1.1 0 0 0-.13.53v10.057c0 .68.483 1.193 1.125 1.193 2.498 0 5.004.234 6.506 1.652a.145.145 0 0 0 .243-.105V3.755a.56.56 0 0 0-.191-.421 5 5 0 0 0-1.136-.732m9.833-.728a1.1 1.1 0 0 0-.63-.186c-2.377.01-4.153.306-5.423.914-.41.191-.792.437-1.136.73a.56.56 0 0 0-.191.422v11.852a.138.138 0 0 0 .234.1c.903-.897 2.487-1.647 6.517-1.646a1.125 1.125 0 0 0 1.125-1.126V2.81a1.13 1.13 0 0 0-.497-.935"/></svg>
